!!! OTL: Berkowitz579
!!! Chapter: 1
!!! Section: V
!!! Page: 156
!!! Mode: 
!!! Encoder: CD
**kern
*staff1
=1-
*clefG2
*k[]
*C:
*M3/4
4c/
4e/
4g#/
=2
4.a/
8f#/
4d#/
=3
4c/
4e/
4g#/
=4
2b\
4dd\
=5
4.b-\
8g/
4e/
=6
4a/
4f#/
4b\
=7
!!linebreak:original
4.cc\
8b-\
8a-/L
8g-/J
=8
4a/
4f/
4d-/
=9
4.d/
8f#/
4a#/
=10
4cc#\
4a/
4f/
=11
4b-\
4.g-/
8e-/
=12
2g/
4g-/
=13
4d-/
4c/
4f/
=14
!!linebreak:original
4.b-\
8g-/
4d/
=15
4e-/
4a-/
4e-/
=16
2.c/
=17
2.r
==
*-
